icons/.icons/Papirus/16x16/panel/thunderbird-attention-panel.svg

<svg xmlns="http://www.w3.org/2000/svg" width="16" height="16" version="1.1">
 <defs>
  <style id="current-color-scheme" type="text/css">
   .ColorScheme-Text { color:#dfdfdf; } .ColorScheme-Highlight { color:#4285f4; }
  </style>
 </defs>
 <path style="opacity:0.3;fill:currentColor" class="ColorScheme-Text" d="M 9.5971245,5.7346995 C 9.0999456,5.937634 8.6326409,6.1588266 7.9998078,6.1588266 7.9769892,6.1591506 7.9541706,6.1585788 7.9313958,6.1571192 6.8002654,6.0684697 6.2724542,6.1387388 5.4464939,6.9438037 5.3801179,7.008352 5.303919,7.0621702 5.2207488,7.1028515 5.1684348,7.1284365 5.1189495,7.1476475 5.068542,7.1695485 5.011136,7.2051725 4.9495851,7.2335375 4.8855516,7.2550585 l 1.3630214,1.53062 4.302838,-1.3527603 c 0.03505,-0.1293856 0.06852,-0.2768054 0.07354,-0.2633692 -0.1985,-0.8076398 -0.43514,-1.1405595 -1.0278221,-1.4348495 z M 4.6290231,7.403845 C 4.4462183,7.78829 4.0163172,7.9949024 3.601199,7.8741469 3.6011639,8.1040743 3.537704,8.3543012 3.592649,8.5599329 3.682565,8.9015042 3.558476,9.2636551 3.277974,9.4783057 3.4456603,10.064109 3.6616353,10.62551 3.9449481,11.161132 l 5.4332734,1.665725 c 0.033387,-0.04 0.067992,-0.07146 0.1009018,-0.112872 0.3409706,-0.429089 0.6606127,-0.935717 0.9235027,-1.510098 -0.0077,0.0037 -0.02163,0.01018 -0.02907,0.01369 -0.08049,0.03798 -0.14684,0.06837 -0.196671,0.09064 -0.02492,0.01114 -0.04515,0.01896 -0.06499,0.02736 -0.0099,0.0042 -0.01796,0.009 -0.0342,0.01539 -0.0081,0.0032 -0.01667,0.0059 -0.03933,0.01369 -0.01133,0.0039 -0.057887,0.01703 -0.05815,0.0171 -1.313e-4,3.5e-5 -0.078587,0.0188 -0.078665,0.01881 -8.05e-5,8.8e-5 -0.2256754,0.0046 -0.2531085,0.0052 -0.6780526,-0.08041 -1.0073188,-0.871412 -0.5865953,-1.4091964 0.00236,-0.00298 0.00961,-0.014036 0.01197,-0.017101 0.2129212,-0.2742214 0.6581682,-0.9129684 1.014142,-1.5460117 0.09857,-0.1752907 0.15887,-0.3259397 0.237717,-0.4908246 L 6.2485726,9.2235291 Z"/>
 <path style="fill:currentColor" class="ColorScheme-Text" d="M 6.601023,0.90546136 C 5.5461148,0.93361657 4.9727673,1.8920816 4.5282727,2.7644378 4.3661037,2.846256 4.2013481,2.9183384 4.0408686,3.0072848 3.1699102,3.5928432 2.4557656,4.4048831 1.9048414,5.2920985 1.4202292,6.1474937 1.1264121,7.0978151 1.0172528,8.0728673 c -0.0648701,0.9885675 0.04845,1.9961517 0.4207068,2.9210037 0.2885318,0.812864 0.7965931,1.705515 1.4468206,2.261949 0.8632491,0.576031 1.5497321,0.992711 2.4917467,0.952576 C 3.415283,12.639744 2.3805039,10.758672 2.053628,8.5448802 2.0433053,8.3790339 2.0229481,8.1996786 2.0827011,8.2438868 2.3062247,8.5981528 2.3582286,8.584874 2.7462548,8.7860164 2.4117383,7.5340747 2.8584517,6.14129 3.404678,5.1244999 3.4730177,5.0462632 3.5472295,4.9712019 3.6201619,4.8953344 l 0.034204,0.00513 c 0.012278,0.1954991 0.035404,0.392309 0.058146,0.5814646 -0.00421,0.091136 0.053934,0.2467917 0.071828,0.3471686 -0.013462,0.035223 -0.08648,0.245919 -0.1145828,0.5096365 -0.016943,0.1044481 -0.017533,0.2070889 -0.00171,0.3078342 0.00285,0.019861 0.0044,0.038616 0.00855,0.058146 0.0085,0.035448 0.018083,0.071242 0.032493,0.1060317 0.030429,0.082165 0.070957,0.1598346 0.136809,0.2240346 0.024362,-0.1098248 0.074063,-0.1984246 0.1419458,-0.2719202 0.016951,-0.018352 0.042578,-0.029557 0.061566,-0.046175 0.061516,-0.052123 0.1257372,-0.1024101 0.1949617,-0.1402356 0.013626,-0.00744 0.013854,-0.00508 0.027363,-0.011971 C 4.4436691,6.4767198 4.6128646,6.422533 4.6137736,6.422533 L 4.6274546,6.408851 C 4.6985916,6.379883 4.7703445,6.348658 4.8360982,6.316501 5.8230806,5.3544873 6.7564624,5.1860945 7.9999496,5.2835463 c 0.6843711,0 1.0740164,-0.1777537 1.7512345,-0.4822736 1.0389599,0.4343505 1.4848809,1.1126412 1.7512339,2.233508 0.10031,0.8424532 -1.253108,2.8628261 -1.7512339,3.5007593 -5.96e-5,9e-6 -0.00341,0.0018 -0.00341,0.0018 1.05e-5,0 0.00341,-9e-6 0.00341,0 0.010271,0.0014 1.5041959,-0.6657338 2.1001139,-1.231337 -0.425171,3.287436 -2.7898254,5.325384 -3.8513484,5.784475 0.8204227,0.05522 1.9440857,-0.456162 2.7174924,-0.928633 -0.353106,0.378371 -0.7307607,0.787915 -0.9662579,0.928633 0.9233859,-0.258558 1.7978819,-0.352974 2.3805839,-0.778137 -2.18e-4,0 0.472284,-0.432501 0.966258,-0.995942 0.06572,-0.07496 0.178614,-0.178006 0.246267,-0.263369 0.04206,-0.05307 0.08203,-0.10744 0.123134,-0.160759 0.0073,-0.0088 0.01527,-0.01847 0.02223,-0.02736 1.039688,-1.271868 1.545927,-2.85274 1.508388,-4.2857356 C 15.005353,6.8419725 14.299482,5.3347238 13.115137,4.0881248 12.258631,3.1865988 11.285637,2.6336627 10.409616,2.3351801 9.5030719,2.074859 8.4364265,1.9427965 7.5296565,1.9931422 c -0.090798,0.00111 -0.342552,0.00848 -0.6857866,0.037624 -0.040139,-0.075617 0.0098,-0.356206 0.107742,-0.4258373 -0.2146677,0.020095 -0.4124391,0.2993374 -0.5951461,0.4925347 -0.030751,0.006 -0.062317,0.012082 -0.09064,0.018812 C 6.4303804,1.8315824 6.5981587,1.5113183 6.7942744,1.2560503 6.1867185,1.3694601 5.9215819,1.8471379 5.6245045,2.2872948 5.538766,2.3155199 5.4555385,2.3497853 5.3713964,2.3813553 5.5917616,1.7454929 6.0061498,1.3974785 6.601023,0.90546136 Z M 5.5254505,4.1831484 c 0.1699623,-0.00328 0.3234476,0.025653 0.3249362,0.025653 0.00289,0 0.076663,0.2977601 -0.063277,0.5523913 C 5.6471697,5.0167954 5.3212909,5.1190675 5.1406578,5.0228517 4.9560562,4.9266366 4.9567116,4.60464 5.0996133,4.3490368 5.1685907,4.2212353 5.3554883,4.1864284 5.5254505,4.1831484 Z"/>
 <path style="fill:none" d="M 6.601023,0.90546136 C 5.5461148,0.93361657 4.9727673,1.8920816 4.5282727,2.7644378 4.3661037,2.846256 4.2013481,2.9183384 4.0408686,3.0072848 3.1699102,3.5928432 2.4557656,4.4048831 1.9048414,5.2920985 1.4202292,6.1474937 1.1264121,7.0978151 1.0172528,8.0728673 c -0.0648701,0.9885675 0.04845,1.9961517 0.4207068,2.9210037 0.2885318,0.812864 0.7965931,1.529998 1.4468206,2.086432 0.8632491,0.576031 1.5497321,0.992711 2.4917467,0.952577 -0.3501691,-0.202462 -1.3006608,-0.770543 -1.5750849,-2.276264 0.2913346,0.57059 1.1769089,1.233794 1.5716646,1.407487 0,0 -0.3258069,-0.53475 -0.3215157,-0.918372 0.00303,-0.271122 0.1137157,-0.56584 0.09235,-0.832863 L 2.4880162,10.713401 C 2.2664132,10.011988 2.1344172,9.2865175 2.053628,8.5448802 2.0433053,8.3790339 2.0229481,8.1996786 2.0827011,8.2438868 2.3062247,8.5981528 2.3582286,8.584874 2.7462548,8.7860164 2.4117383,7.5340747 2.8584517,6.14129 3.404678,5.1244999 3.4730177,5.0462632 3.5472295,4.9712019 3.6201619,4.8953344 l 0.034204,0.00513 c 0.012278,0.1954991 0.035404,0.392309 0.058146,0.5814646 -0.00421,0.091136 0.053934,0.2467917 0.071828,0.3471686 -0.013462,0.035223 -0.08648,0.245919 -0.1145828,0.5096365 -0.016943,0.1044481 -0.017533,0.2070889 -0.00171,0.3078342 0.00285,0.019861 0.0044,0.038616 0.00855,0.058146 0.0085,0.035448 0.018083,0.071242 0.032493,0.1060317 0.030429,0.082165 0.070957,0.1598346 0.136809,0.2240346 0.024362,-0.1098248 0.074063,-0.1984246 0.1419458,-0.2719202 0.016951,-0.018352 0.042578,-0.029557 0.061566,-0.046175 0.061516,-0.052123 0.1257372,-0.1024101 0.1949617,-0.1402356 0.013626,-0.00744 0.013854,-0.00508 0.027363,-0.011971 C 4.4436691,6.4767198 4.6128646,6.422533 4.6137736,6.422533 L 4.6274546,6.408851 C 4.6985916,6.379883 4.7703445,6.348658 4.8360982,6.316501 5.8230806,5.3544873 6.7564624,5.1860945 7.9999496,5.2835463 c 0.6843711,0 1.0740164,-0.1777537 1.7512345,-0.4822736 1.0389599,0.4343505 1.4848809,1.1126412 1.7512339,2.233508 0.10031,0.8424532 -1.253108,2.8628261 -1.7512339,3.5007593 -5.96e-5,9e-6 -0.00341,0.0018 -0.00341,0.0018 1.05e-5,0 0.00341,-9e-6 0.00341,0 0.010271,0.0014 1.5041959,-0.6657338 2.1001139,-1.231337 -0.425171,3.287436 -2.7898254,5.150332 -3.8513484,5.609423 0.8204227,0.05522 1.9440857,-0.456161 2.7174924,-0.928633 -0.353106,0.378372 -0.7307607,0.787915 -0.9662579,0.928633 0.9233859,-0.258558 1.7978819,-0.352973 2.3805839,-0.778136 -2.18e-4,0 0.472284,-0.25745 0.966258,-0.820891 0.06572,-0.07496 0.178614,-0.178006 0.246267,-0.263369 0.04206,-0.05307 0.08203,-0.10744 0.123134,-0.160759 0.0073,-0.0088 0.01527,-0.01847 0.02223,-0.02736 1.039688,-1.271868 1.545927,-2.85274 1.508388,-4.2857356 C 15.005353,6.8419725 14.299482,5.3347238 13.115137,4.0881248 12.258631,3.1865988 11.285637,2.6336627 10.409616,2.3351801 9.5030719,2.074859 8.4364265,1.9427965 7.5296565,1.9931422 c -0.090798,0.00111 -0.342552,0.00848 -0.6857866,0.037624 -0.040139,-0.075617 0.0098,-0.356206 0.107742,-0.4258373 -0.2146677,0.020095 -0.4124391,0.2993374 -0.5951461,0.4925347 -0.030751,0.006 -0.062317,0.012082 -0.09064,0.018812 C 6.4303804,1.8315824 6.5981587,1.5113183 6.7942744,1.2560503 6.1867185,1.3694601 5.9215819,1.8471379 5.6245045,2.2872948 5.538766,2.3155199 5.4555385,2.3497853 5.3713964,2.3813553 5.5917616,1.7454929 6.0061498,1.3974785 6.601023,0.90546136 Z M 5.025938,4.4079303 c 0.1699623,-0.00328 0.3234476,0.025653 0.3249362,0.025653 0.00289,0 0.076663,0.2977601 -0.063277,0.5523913 C 5.1476572,5.2415773 4.8217784,5.3438494 4.6411453,5.2476336 4.4565437,5.1514185 4.4571991,4.8294219 4.6001008,4.5738187 4.6690782,4.4460172 4.8559758,4.4112103 5.025938,4.4079303 Z"/>
 <circle style="fill:currentColor" class="ColorScheme-Highlight" cx="14.5" cy="1.5" r="1.5"/>
</svg>

<svg xmlns="http://www.w3.org/2000/svg" width="16" height="16" version="1.1">
 <defs>
  <style id="current-color-scheme" type="text/css">
   .ColorScheme-Text { color:#dfdfdf; } .ColorScheme-Highlight { color:#4285f4; }
  </style>
 </defs>
 <circle style="fill:currentColor" class="ColorScheme-Highlight" cx="14.5" cy="1.5" r="1.5"/>
 <path style="fill:currentColor" class="ColorScheme-Text" d="m6.601 0.905c-1.0549 0.02816-1.6282 0.9866-2.0727 1.8589-0.1622 0.0819-0.327 0.1539-0.4874 0.2429-0.871 0.5855-1.5851 1.3976-2.1361 2.2848-0.4846 0.8554-0.7784 1.8057-0.8875 2.7808-0.06495 0.9885 0.0484 1.9966 0.4207 2.9216 0.2885 0.813 0.7966 1.705 1.4468 2.262 0.8632 0.576 1.5497 0.993 2.4917 0.952-1.9612-1.568-2.996-3.449-3.3229-5.6636-0.0103-0.1659-0.0307-0.3452 0.0291-0.301 0.2235 0.3543 0.2755 0.341 0.6636 0.5421-0.3346-1.2519 0.1122-2.6447 0.6584-3.6615 0.0683-0.0782 0.1425-0.1533 0.2155-0.2292l0.0342 0.0052c0.0122 0.1955 0.0354 0.3923 0.0581 0.5814-0.0042 0.0912 0.0539 0.2468 0.0718 0.3472-0.0134 0.0352-0.0864 0.2459-0.1145 0.5096-0.017 0.1045-0.0176 0.2071-0.0018 0.3079 0.0029 0.0198 0.0044 0.0386 0.0086 0.0581 0.0085 0.0355 0.0181 0.0713 0.0325 0.106 0.0304 0.0822 0.0709 0.1599 0.1368 0.2241 0.0244-0.1098 0.0741-0.1984 0.1419-0.2719 0.017-0.0184 0.0426-0.0296 0.0616-0.0462 0.0615-0.0521 0.1257-0.1024 0.195-0.1403 0.0136-0.0074 0.0138-5e-3 0.0273-0.0119 0.172-0.0878 0.3412-0.142 0.3421-0.142l0.0137-0.0136c0.0711-0.029 0.1428-0.0602 0.2086-0.0924 0.987-0.962 1.9204-1.1304 3.1638-1.033 0.6844 0 1.0741-0.1777 1.7513-0.4822 1.0388 0.4343 1.4848 1.1126 1.7508 2.2335 0.101 0.8424-1.253 2.8628-1.7508 3.5007-1e-4 0-0.0034 2e-3 -0.0034 2e-3h0.0034c0.0103 1e-3 1.5038-0.6659 2.0998-1.2315-0.425 3.2875-2.7895 5.3255-3.8511 5.7845 0.8205 0.056 1.9441-0.456 2.7171-0.928-0.353 0.378-0.7303 0.788-0.9658 0.928 0.9238-0.258 1.7978-0.352 2.3808-0.778 0 0 0.472-0.432 0.966-0.996 0.066-0.075 0.179-0.178 0.246-0.263 0.042-0.053 0.082-0.107 0.123-0.161 8e-3 -9e-3 0.016-0.018 0.023-0.027 1.039-1.272 1.546-2.853 1.508-4.2863 7e-3 -1.7372-0.699-3.2445-1.883-4.4911-0.856-0.9015-1.829-1.4544-2.705-1.7529-0.9069-0.2603-1.9736-0.3924-2.8803-0.3421-0.0908 0.0012-0.3426 0.0085-0.6858 0.0377-0.0402-0.0757 0.0098-0.3562 0.1077-0.4259-0.2147 0.0201-0.4124 0.2994-0.5951 0.4926-0.0308 6e-3 -0.0624 0.012-0.0907 0.0188 0.1646-0.2847 0.3324-0.605 0.5285-0.8602-0.6076 0.1134-0.8727 0.591-1.1698 1.0312-0.0857 0.0282-0.169 0.0625-0.2531 0.0941 0.2204-0.6359 0.6347-0.9839 1.2296-1.4759zm-1.0755 3.2776c0.1699-0.0032 0.3234 0.0257 0.3249 0.0257 0.0029 0 0.0766 0.2978-0.0633 0.5524-0.1399 0.2556-0.4658 0.3579-0.6464 0.2617-0.1846-0.0963-0.184-0.4183-0.0411-0.6739 0.069-0.1278 0.2559-0.1626 0.4259-0.1659z"/>
 <path style="fill:currentColor;opacity:.3" class="ColorScheme-Text" d="m9.5971 5.735c-0.4972 0.2029-0.9645 0.4241-1.5973 0.4241-0.0228 4e-4 -0.0456-2e-4 -0.0684-0.0017-1.1311-0.0886-1.6589-0.0184-2.4849 0.7867-0.0664 0.0646-0.1426 0.1184-0.2258 0.1591-0.0523 0.0255-0.1018 0.0447-0.1522 0.0666-0.0574 0.0357-0.1189 0.064-0.1829 0.0856l1.363 1.5306 4.3024-1.3528c0.035-0.1294 0.069-0.2768 0.074-0.2634-0.199-0.8076-0.435-1.1405-1.0279-1.4348zm-4.9681 1.6691c-0.1828 0.3845-0.6127 0.5911-1.0278 0.4703 0 0.23-0.0635 0.4802-0.0086 0.6858 0.09 0.3416-0.0341 0.7038-0.3146 0.9184 0.1677 0.5854 0.3836 1.1474 0.6669 1.6824l5.4333 1.666c0.0334-0.04 0.068-0.072 0.1009-0.113 0.341-0.429 0.6609-0.936 0.9239-1.51-8e-3 4e-3 -0.022 0.01-0.029 0.014-0.081 0.038-0.147 0.068-0.197 0.09-0.025 0.011-0.045 0.019-0.065 0.028-0.01 4e-3 -0.018 9e-3 -0.034 0.015-8e-3 3e-3 -0.017 6e-3 -0.04 0.014-0.011 4e-3 -0.0575 0.017-0.0578 0.017-1e-4 0-0.0786 0.019-0.0786 0.019-1e-4 0-0.2257 4e-3 -0.2532 5e-3 -0.678-0.081-1.0073-0.872-0.5866-1.4091 0.0024-3e-3 0.0097-0.0141 0.012-0.0171 0.2129-0.2743 0.6582-0.913 1.0142-1.546 0.099-0.1753 0.159-0.326 0.238-0.4909l-4.0774 1.2809z"/>
</svg>
